X:228
T:
R:polska
S:
N:Sjöngs av ungdomen, då ingen spelman fanns tillgänglig.
O:Gotland
M:3/4
L:1/16
K:G
B4 A2A2 G4|g2ag f2e2 d4|f2f2 a2a2 c2c2|e2e2 d4 z4::
e2c2 e2c2 e2e2|d2B2 d2B2 d2d2|ecGc ecGc e2e2|
dBGB dBGB d2d2|e2f2 g2d2 B2d2|c3A A4 G4:|

